48x48/apps/rkward.svg

<svg xmlns="http://www.w3.org/2000/svg" width="48" height="48" x="0" y="0" version="1">
 <path style="opacity:0.2" d="m 19.980884,18.999436 c -4.559921,0 -8.693195,0.961277 -11.7601986,2.580144 -1.5335016,0.809524 -2.79933,1.782313 -3.7223721,2.933669 C 3.5752804,25.664606 3,27.03019 3,28.517258 v 2.96492 c 0,1.487067 0.5752804,2.852652 1.4983133,4.004009 0.9230421,1.151356 2.1888705,2.126188 3.7223721,2.935622 C 11.287689,40.040676 15.420963,41 19.980884,41 c 4.559831,0 8.693215,-0.959324 11.760199,-2.578191 1.533537,-0.809434 2.799303,-1.784266 3.722372,-2.935622 0.92298,-1.151357 1.498313,-2.516942 1.498313,-4.004009 v -2.96492 c 0,-1.487068 -0.575333,-2.852652 -1.498313,-4.004009 -0.923069,-1.151356 -2.188834,-2.124145 -3.722372,-2.933669 -3.066984,-1.618867 -7.200368,-2.580144 -11.760199,-2.580144 z m 4.020865,5.000128 c 2.612182,0 4.998554,0.6685 6.814593,1.69731 1.613026,0.91383 2.635923,2.122424 3.148799,3.302818 -0.435782,0.893107 -1.324637,2.04774 -2.819092,3.01375 -1.742479,1.126218 -4.148693,1.986378 -7.1443,1.986378 -2.999327,0 -5.439532,-0.84921 -7.193075,-1.955128 -1.558902,-0.983154 -2.455845,-2.180715 -2.821043,-3.045 0.31033,-1.046481 1.296451,-2.314442 3.008332,-3.269615 1.876394,-1.047007 4.396673,-1.730513 7.005786,-1.730513 z"/>
 <path style="fill:#3773f2" d="m 19.980884,17.999436 c -4.559921,0 -8.693195,0.961277 -11.7601986,2.580144 -1.5335016,0.809524 -2.79933,1.782313 -3.7223721,2.933669 C 3.5752804,24.664606 3,26.03019 3,27.517258 v 2.96492 c 0,1.487067 0.5752804,2.852652 1.4983133,4.004009 0.9230421,1.151356 2.1888705,2.126188 3.7223721,2.935622 C 11.287689,39.040676 15.420963,40 19.980884,40 c 4.559831,0 8.693215,-0.959324 11.760199,-2.578191 1.533537,-0.809434 2.799303,-1.784266 3.722372,-2.935622 0.92298,-1.151357 1.498313,-2.516942 1.498313,-4.004009 v -2.96492 c 0,-1.487068 -0.575333,-2.852652 -1.498313,-4.004009 -0.923069,-1.151356 -2.188834,-2.124145 -3.722372,-2.933669 -3.066984,-1.618867 -7.200368,-2.580144 -11.760199,-2.580144 z m 4.020865,5.000128 c 2.612182,0 4.998554,0.6685 6.814593,1.69731 1.613026,0.91383 2.635923,2.122424 3.148799,3.302818 -0.435782,0.893107 -1.324637,2.04774 -2.819092,3.01375 -1.742479,1.126218 -4.148693,1.986378 -7.1443,1.986378 -2.999327,0 -5.439532,-0.84921 -7.193075,-1.955128 -1.558902,-0.983154 -2.455845,-2.180715 -2.821043,-3.045 0.31033,-1.046481 1.296451,-2.314442 3.008332,-3.269615 1.876394,-1.047007 4.396673,-1.730513 7.005786,-1.730513 z"/>
 <path style="fill:#f4f4f7;opacity:0.1" d="M 19.980469 18 C 15.420548 18 11.287707 18.961211 8.2207031 20.580078 C 6.6872015 21.389602 5.421089 22.362316 4.4980469 23.513672 C 3.575014 24.665029 3 26.03051 3 27.517578 L 3 28.517578 C 3 27.03051 3.575014 25.665029 4.4980469 24.513672 C 5.421089 23.362316 6.6872015 22.389602 8.2207031 21.580078 C 11.287707 19.961211 15.420548 19 19.980469 19 C 24.5403 19 28.67325 19.961211 31.740234 21.580078 C 33.273772 22.389602 34.539822 23.362316 35.462891 24.513672 C 36.385871 25.665029 36.960938 27.03051 36.960938 28.517578 L 36.960938 27.517578 C 36.960938 26.03051 36.385871 24.665029 35.462891 23.513672 C 34.539822 22.362316 33.273772 21.389602 31.740234 20.580078 C 28.67325 18.961211 24.5403 18 19.980469 18 z M 14.220703 28.433594 C 14.125214 28.62673 14.0424 28.817502 13.988281 29 C 14.353479 29.864285 15.249692 31.061768 16.808594 32.044922 C 18.562137 33.15084 21.002626 34 24.001953 34 C 26.99756 34 29.404005 33.13989 31.146484 32.013672 C 32.640939 31.047662 33.529062 29.893107 33.964844 29 C 33.889954 28.827639 33.780482 28.65498 33.683594 28.482422 C 33.190442 29.286914 32.387352 30.21158 31.146484 31.013672 C 29.404005 32.13989 26.99756 33 24.001953 33 C 21.002626 33 18.562137 32.15084 16.808594 31.044922 C 15.490814 30.213837 14.671099 29.240272 14.220703 28.433594 z"/>
 <path style="opacity:0.2" d="M 23.675781 9.0019531 C 23.27724 9.0453821 22.974244 9.3859787 22.976562 9.7910156 L 22.976562 32.962891 C 23.311358 32.985106 23.651713 33 24.001953 33 C 26.900363 33 29.241196 32.191503 30.96875 31.119141 L 30.96875 27 L 32.410156 27 C 33.362903 27 34.015002 27.210169 34.501953 27.554688 C 35.445321 28.691554 35.750867 30.817507 35.921875 32.685547 C 36.096368 34.590676 35.978516 36.154297 35.978516 36.154297 C 35.963036 36.373297 36.035326 36.589561 36.183594 36.75 C 36.331837 36.910527 36.540548 37.000542 36.757812 37 L 44.128906 37 C 44.539504 37.0011 44.882732 36.681485 44.912109 36.267578 C 45.057586 34.293151 44.796862 31.863353 44.296875 29.697266 C 43.806797 27.574673 43.171913 25.746542 42.011719 24.761719 C 41.988649 24.737899 41.978358 24.701114 41.955078 24.677734 C 41.626278 24.347475 41.266746 24.067994 40.892578 23.832031 C 41.882733 23.302803 42.763898 22.690888 43.378906 21.859375 C 44.340143 20.577766 44.99991 18.635592 45 16.763672 C 44.99991 14.073592 44.093058 11.912683 42.265625 10.587891 C 41.10615 9.7413224 39.5795 9.3228831 37.855469 9.0371094 C 37.507641 8.979522 37.165896 9.1662826 37.019531 9.4902344 L 34.785156 14.056641 C 34.61352 14.424438 34.748083 14.864185 35.09375 15.072266 C 35.429782 15.27015 35.751872 15.532449 36.070312 15.804688 C 36.070132 15.814087 36.070132 15.824604 36.070312 15.833984 C 36.464568 16.164874 36.863281 17.03823 36.863281 18.107422 C 36.863281 19.189699 36.261514 20.075114 35.871094 20.410156 C 35.497554 20.736714 34.649658 21.000091 33.332031 21 L 30.96875 21 L 30.96875 9.7910156 C 30.96866 9.354974 30.644385 9.0019982 30.212891 9.0019531 L 23.759766 9.0019531 C 23.731796 9.0004431 23.703651 9.0004431 23.675781 9.0019531 z"/>
 <path style="fill:#4f4f4f" d="m 23.675943,8.0011325 c -0.398541,0.043429 -0.70075,0.3840459 -0.698432,0.7890828 V 32.962711 c 0.334222,0.02214 0.674618,0.03711 1.024238,0.03711 2.898613,0 5.239192,-0.808427 6.966766,-1.880907 v -5.119272 h 1.441736 c 0.952747,0 1.604444,0.210183 2.091395,0.554702 0.943368,1.136867 1.248341,3.262951 1.419349,5.130991 0.174493,1.905129 0.05658,3.468839 0.05658,3.468839 -0.01548,0.219 0.05853,0.435279 0.206798,0.595718 0.148243,0.160527 0.356308,0.250548 0.573573,0.250006 h 7.371537 c 0.410598,0.0011 0.752945,-0.318533 0.782322,-0.73244 0.145477,-1.974427 -0.114555,-4.404394 -0.614542,-6.570481 -0.490078,-2.122593 -1.126294,-3.95085 -2.286488,-4.935673 -0.02307,-0.02382 -0.0333,-0.0606 -0.05658,-0.08398 -0.3288,-0.330259 -0.687137,-0.609761 -1.061305,-0.845724 0.990155,-0.529228 1.870475,-1.141194 2.485483,-1.972707 C 44.33961,19.577284 44.99991,17.635579 45,15.763659 44.99991,13.073579 44.092231,10.912512 42.264798,9.5877202 41.105323,8.7411518 39.57973,8.3226728 37.855699,8.0368991 37.507871,7.9793117 37.165116,8.166084 37.018751,8.4900358 l -2.233814,4.5665232 c -0.171636,0.367797 -0.03742,0.80757 0.308247,1.015651 0.336032,0.197884 0.658974,0.460202 0.977415,0.732441 -1.8e-4,0.0094 -1.8e-4,0.01992 0,0.0293 0.394256,0.33089 0.793348,1.203522 0.793348,2.272714 0,1.082277 -0.602328,1.967538 -0.992748,2.30258 -0.37354,0.326558 -1.222483,0.590332 -2.54011,0.590241 H 30.968515 V 8.7902153 C 30.968425,8.3541737 30.645,8.0011776 30.213506,8.0011325 h -6.453673 c -0.02797,-0.00151 -0.05602,-0.00151 -0.08389,0 z"/>
 <path style="opacity:0.1;fill:#f4f4f7" d="M 23.675781 8.0019531 C 23.27724 8.0453821 22.974244 8.3859787 22.976562 8.7910156 L 22.976562 9.7910156 C 22.974244 9.3859787 23.27724 9.0453821 23.675781 9.0019531 C 23.703651 9.0004431 23.731796 9.0004431 23.759766 9.0019531 L 30.212891 9.0019531 C 30.644385 9.0019982 30.96866 9.354974 30.96875 9.7910156 L 30.96875 8.7910156 C 30.96866 8.354974 30.644385 8.0019982 30.212891 8.0019531 L 23.759766 8.0019531 C 23.731796 8.0004431 23.703651 8.0004431 23.675781 8.0019531 z M 37.599609 8.0371094 C 37.349609 8.0805296 37.129305 8.2472705 37.019531 8.4902344 L 34.785156 13.056641 C 34.656827 13.331635 34.698874 13.646457 34.873047 13.875 L 37.019531 9.4902344 C 37.165896 9.1662826 37.507641 8.979522 37.855469 9.0371094 C 39.5795 9.3228831 41.10615 9.7413224 42.265625 10.587891 C 43.975897 11.827747 44.869471 13.806818 44.978516 16.259766 C 44.988547 16.094096 44.999992 15.928756 45 15.763672 C 44.99991 13.073592 44.093058 10.912682 42.265625 9.5878906 C 41.10615 8.7413222 39.5795 8.3228831 37.855469 8.0371094 C 37.768512 8.0227125 37.682943 8.022636 37.599609 8.0371094 z M 36.818359 17.603516 C 36.674593 18.453528 36.199442 19.128382 35.871094 19.410156 C 35.497554 19.736714 34.649658 20.000091 33.332031 20 L 30.96875 20 L 30.96875 21 L 33.332031 21 C 34.649658 21.000091 35.497554 20.736714 35.871094 20.410156 C 36.261514 20.075114 36.863281 19.189699 36.863281 18.107422 C 36.863281 17.930152 36.83846 17.768405 36.818359 17.603516 z M 41.642578 23.398438 C 41.40194 23.550222 41.150934 23.693943 40.892578 23.832031 C 41.266746 24.067994 41.626278 24.347475 41.955078 24.677734 C 41.978358 24.701114 41.988649 24.737899 42.011719 24.761719 C 43.171913 25.746542 43.806797 27.574673 44.296875 29.697266 C 44.651552 31.233827 44.877555 32.89803 44.931641 34.443359 C 44.967113 32.636837 44.730593 30.576257 44.296875 28.697266 C 43.806797 26.574673 43.171913 24.746542 42.011719 23.761719 C 41.988649 23.737899 41.978358 23.701114 41.955078 23.677734 C 41.855052 23.577265 41.747685 23.489716 41.642578 23.398438 z M 36.007812 34.361328 C 35.99628 34.76243 35.978516 35.154297 35.978516 35.154297 C 35.973179 35.22979 35.992505 35.30233 36.007812 35.375 C 36.01666 35.077071 36.01597 34.816806 36.007812 34.361328 z"/>
</svg>

<svg xmlns="http://www.w3.org/2000/svg" width="48" height="48" version="1"><path style="opacity:.2" d="M19.98 19c-4.559 0-8.692.96-11.76 2.58-1.533.81-2.799 1.782-3.722 2.933C3.575 25.665 3 27.03 3 28.517v2.965c0 1.487.575 2.853 1.498 4.004.923 1.152 2.19 2.126 3.723 2.936C11.288 40.04 15.42 41 19.98 41s8.693-.96 11.76-2.578c1.534-.81 2.8-1.784 3.722-2.936.923-1.151 1.499-2.517 1.499-4.004v-2.965c0-1.487-.576-2.852-1.499-4.004-.923-1.151-2.188-2.124-3.722-2.933-3.067-1.62-7.2-2.58-11.76-2.58zm4.022 5c2.612 0 4.998.668 6.814 1.697 1.613.914 2.636 2.122 3.15 3.303-.437.893-1.325 2.047-2.82 3.013C29.404 33.14 26.997 34 24.002 34c-3 0-5.44-.85-7.193-1.955-1.56-.983-2.456-2.181-2.821-3.045.31-1.047 1.296-2.315 3.008-3.27 1.876-1.047 4.397-1.73 7.006-1.73z"/><path style="fill:#3773f2" d="M19.98 18c-4.559 0-8.692.96-11.76 2.58-1.533.81-2.799 1.782-3.722 2.933C3.575 24.665 3 26.03 3 27.517v2.965c0 1.487.575 2.853 1.498 4.004.923 1.152 2.19 2.126 3.723 2.936C11.288 39.04 15.42 40 19.98 40s8.693-.96 11.76-2.578c1.534-.81 2.8-1.784 3.722-2.936.923-1.151 1.499-2.517 1.499-4.004v-2.965c0-1.487-.576-2.852-1.499-4.004-.923-1.151-2.188-2.124-3.722-2.933-3.067-1.62-7.2-2.58-11.76-2.58zm4.022 5c2.612 0 4.998.668 6.814 1.697 1.613.914 2.636 2.122 3.15 3.303-.437.893-1.325 2.047-2.82 3.013C29.404 32.14 26.997 33 24.002 33c-3 0-5.44-.85-7.193-1.955-1.56-.983-2.456-2.181-2.821-3.045.31-1.047 1.296-2.315 3.008-3.27 1.876-1.047 4.397-1.73 7.006-1.73z"/><path style="fill:#f4f4f7;opacity:.1" d="M19.98 18c-4.56 0-8.692.961-11.76 2.58-1.533.81-2.799 1.782-3.722 2.934C3.575 24.665 3 26.03 3 27.518v1c0-1.487.575-2.853 1.498-4.004.923-1.152 2.19-2.124 3.723-2.934 3.067-1.619 7.2-2.58 11.76-2.58s8.692.961 11.76 2.58c1.533.81 2.799 1.782 3.722 2.934.923 1.151 1.498 2.517 1.498 4.004v-1c0-1.487-.575-2.853-1.498-4.004-.923-1.152-2.19-2.124-3.723-2.934-3.067-1.619-7.2-2.58-11.76-2.58zm-5.76 10.434a3.653 3.653 0 0 0-.232.566c.365.864 1.262 2.062 2.82 3.045C18.563 33.15 21.004 34 24.003 34c2.996 0 5.402-.86 7.144-1.986 1.495-.966 2.383-2.12 2.819-3.014-.075-.172-.185-.345-.281-.518-.494.805-1.297 1.73-2.538 2.532C29.404 32.14 26.998 33 24.002 33c-3 0-5.44-.85-7.193-1.955-1.318-.831-2.138-1.805-2.588-2.611z"/><path style="opacity:.2" d="M23.676 9.002a.788.788 0 0 0-.7.789v23.172c.335.022.676.037 1.026.037 2.898 0 5.24-.808 6.967-1.88V27h1.441c.953 0 1.605.21 2.092.555.943 1.137 1.249 3.263 1.42 5.13.174 1.906.057 3.47.057 3.47a.779.779 0 0 0 .78.846l7.37-.001a.786.786 0 0 0 .783-.732c.146-1.975-.115-4.405-.615-6.57-.49-2.123-1.125-3.951-2.285-4.936-.023-.024-.034-.06-.057-.084a6.043 6.043 0 0 0-1.062-.846c.99-.53 1.87-1.141 2.486-1.973.961-1.281 1.62-3.223 1.621-5.095 0-2.69-.907-4.851-2.734-6.176-1.16-.847-2.686-1.265-4.41-1.55a.78.78 0 0 0-.836.452l-2.235 4.567a.795.795 0 0 0 .309 1.015c.336.198.658.46.976.733v.029c.395.33.793 1.204.793 2.273 0 1.083-.601 1.968-.992 2.303-.373.327-1.221.59-2.539.59h-2.363V9.791c0-.436-.325-.789-.756-.789H23.76a.78.78 0 0 0-.084 0z"/><path style="fill:#4f4f4f" d="M23.676 8.001a.787.787 0 0 0-.698.79v24.172c.334.022.674.037 1.024.037 2.898 0 5.239-.809 6.967-1.881v-5.12h1.441c.953 0 1.605.21 2.092.555.943 1.137 1.248 3.263 1.419 5.131.174 1.905.057 3.47.057 3.47a.795.795 0 0 0 .206.595c.149.16.357.25.574.25h7.371a.785.785 0 0 0 .783-.733c.145-1.974-.115-4.404-.615-6.57-.49-2.123-1.126-3.95-2.286-4.936-.023-.024-.034-.06-.057-.084a6.035 6.035 0 0 0-1.061-.845c.99-.53 1.87-1.142 2.485-1.973C44.34 19.577 45 17.636 45 15.764c0-2.69-.908-4.851-2.735-6.176-1.16-.847-2.685-1.265-4.41-1.551a.78.78 0 0 0-.836.453l-2.234 4.567a.795.795 0 0 0 .308 1.015c.336.198.66.46.978.733v.029c.394.33.793 1.203.793 2.273 0 1.082-.602 1.967-.993 2.302-.373.327-1.222.59-2.54.59H30.97V8.79c0-.436-.324-.789-.755-.789H23.76a.777.777 0 0 0-.084 0z"/><path style="opacity:.1;fill:#f4f4f7" d="M23.676 8.002a.788.788 0 0 0-.7.789v1a.788.788 0 0 1 .7-.789.78.78 0 0 1 .084 0h6.453c.431 0 .756.353.756.789v-1c0-.436-.325-.789-.756-.789H23.76a.78.78 0 0 0-.084 0zm13.924.035a.787.787 0 0 0-.58.453l-2.235 4.567a.796.796 0 0 0 .088.818L37.02 9.49a.78.78 0 0 1 .835-.453c1.725.286 3.251.704 4.41 1.55 1.71 1.24 2.604 3.22 2.714 5.673.01-.166.021-.331.021-.496 0-2.69-.907-4.851-2.734-6.176-1.16-.847-2.686-1.265-4.41-1.55a.761.761 0 0 0-.256 0zm-.782 9.567c-.143.85-.619 1.524-.947 1.806-.373.327-1.221.59-2.539.59h-2.363v1h2.363c1.318 0 2.166-.263 2.54-.59.39-.335.991-1.22.991-2.303 0-.177-.025-.339-.045-.503zm4.825 5.794c-.241.152-.492.296-.75.434.374.236.733.515 1.062.846.023.023.034.06.057.084 1.16.985 1.795 2.813 2.285 4.935.355 1.537.58 3.201.635 4.746.035-1.806-.201-3.867-.635-5.746-.49-2.122-1.125-3.95-2.285-4.935-.023-.024-.034-.06-.057-.084-.1-.1-.207-.188-.312-.28zm-5.635 10.963c-.012.401-.03.793-.03.793-.005.076.015.148.03.221a19.87 19.87 0 0 0 0-1.014z"/></svg>
